svg/UnitedNations-Flags/flag-np.svg

<?xml version="1.0" encoding="UTF-8" standalone="no"?>
<svg height="256" id="svg4159" inkscape:output_extension="org.inkscape.output.svg.inkscape" inkscape:version="0.46" sodipodi:docname="Flag_of_Nepal.svg" sodipodi:version="0.32" version="1.0" viewBox="-18 -5 72 88" width="256" xmlns="http://www.w3.org/2000/svg" xmlns:cc="http://creativecommons.org/ns#" xmlns:dc="http://purl.org/dc/elements/1.1/" xmlns:inkscape="http://www.inkscape.org/namespaces/inkscape" xmlns:rdf="http://www.w3.org/1999/02/22-rdf-syntax-ns#" xmlns:sodipodi="http://sodipodi.sourceforge.net/DTD/sodipodi-0.dtd" xmlns:svg="http://www.w3.org/2000/svg" xmlns:xlink="http://www.w3.org/1999/xlink">
  <metadata>
    <rdf:RDF xmlns:cc="http://web.resource.org/cc/" xmlns:dc="http://purl.org/dc/elements/1.1/" xmlns:rdf="http://www.w3.org/1999/02/22-rdf-syntax-ns#">
      <cc:Work rdf:about="">
        <dc:title></dc:title>
        <dc:description></dc:description>
        <dc:subject>
          <rdf:Bag>
            <rdf:li>unsorted</rdf:li>
          </rdf:Bag>
        </dc:subject>
        <dc:publisher>
          <cc:Agent rdf:about="http://www.openclipart.org/">
            <dc:title>Open Clip Art Library, Source: Wikimedia Commons, Source: Wikimedia Commons, Source: Wikimedia Commons, Source: Wikimedia Commons</dc:title>
          </cc:Agent>
        </dc:publisher>
        <dc:creator>
          <cc:Agent>
            <dc:title></dc:title>
          </cc:Agent>
        </dc:creator>
        <dc:rights>
          <cc:Agent>
            <dc:title></dc:title>
          </cc:Agent>
        </dc:rights>
        <dc:date></dc:date>
        <dc:format>image/svg+xml</dc:format>
        <dc:type rdf:resource="http://purl.org/dc/dcmitype/StillImage"/>
        <cc:license rdf:resource="http://en.wikipedia.org/wiki/Public_domain"/>
        <dc:language>en</dc:language>
      </cc:Work>
    </rdf:RDF>
  </metadata>
  <sodipodi:namedview bordercolor="#666666" borderopacity="1.0" gridtolerance="10.0" guidetolerance="10.0" id="base" inkscape:current-layer="svg4159" inkscape:cx="315" inkscape:cy="385" inkscape:pageopacity="0.0" inkscape:pageshadow="2" inkscape:window-height="674" inkscape:window-width="640" inkscape:window-x="117" inkscape:window-y="211" inkscape:zoom="0.6025974" objecttolerance="10.0" pagecolor="#ffffff" showgrid="false"/>
  <defs id="defs4161">
    <inkscape:perspective id="perspective4212" inkscape:persp3d-origin="315 : 256.66667 : 1" inkscape:vp_x="0 : 385 : 1" inkscape:vp_y="0 : 1000 : 0" inkscape:vp_z="630 : 385 : 1" sodipodi:type="inkscape:persp3d"/>
    <clipPath id="helper1">
      <rect height="30" id="rect4164" width="50" x="-20" y="21"/>
    </clipPath>
    <clipPath id="helper2">
      <rect height="30" id="rect4167" width="50" x="-20" y="20"/>
    </clipPath>
  </defs>
  <path d="M -15,0 L -15,80 L 45,80 L 2.5735931,37.573593 L 45,37.573593 L -15,0 z" id="path4169" style="stroke:#003893;stroke-width:5.16467524"/>
  <!--E 2TN-->
  <path d="M -15,0 L -15,80 L 45,80 L 2.5735931,37.573593 L 45,37.573593 L -15,0 z" id="path4171" style="fill:#ce1126;stroke:none"/>
  <!--E-->
  <g id="g4173" style="fill:#ffffff">
    <circle clip-path="url(#helper1)" cx="0" cy="23.483496" id="circle4175" r="11.950277" sodipodi:cx="0" sodipodi:cy="23.483496" sodipodi:rx="11.950277" sodipodi:ry="11.950277"/>
    <!--MQ-->
    <circle clip-path="url(#helper2)" cx="0" cy="18.786797" id="circle4177" r="12.840097" sodipodi:cx="0" sodipodi:cy="18.786797" sodipodi:rx="12.840097" sodipodi:ry="12.840097" style="fill:#ce1126"/>
    <!--LN-->
    <g id="g4179" transform="matrix(5.5610606,0,0,5.5610606,0,29.044556)">
      <!--TM-->
      <circle cx="0" cy="0" id="circle4181" r="1" sodipodi:cx="0" sodipodi:cy="0" sodipodi:rx="1" sodipodi:ry="1"/>
      <g id="6jags">
        <g id="3jags">
          <path d="M 0.19509032,-0.98078528 L 0,-1.3887841 L -0.19509032,-0.98078528" id="jag" transform="matrix(0.9807853,0.1950903,-0.1950903,0.9807853,0,0)"/>
          <!--sin(Pi/16) cos(Pi/16) TS/TM-->
          <use height="88" id="use4186" transform="matrix(0.9238795,0.3826834,-0.3826834,0.9238795,0,0)" width="72" x="0" xlink:href="#jag" y="0"/>
          <use height="88" id="use4188" transform="matrix(0.7071068,0.7071068,-0.7071068,0.7071068,0,0)" width="72" x="0" xlink:href="#jag" y="0"/>
        </g>
        <use height="88" id="use4190" transform="matrix(0.3826834,0.9238795,-0.9238795,0.3826834,0,0)" width="72" x="0" xlink:href="#3jags" y="0"/>
      </g>
      <use height="88" id="use4192" transform="scale(-1,1)" width="72" x="0" xlink:href="#6jags" y="0"/>
    </g>
    <g id="g4194" transform="matrix(8.1433983,0,0,8.1433983,0,58.786797)">
      <!--W NM-->
      <circle cx="0" cy="0" id="circle4196" r="1" sodipodi:cx="0" sodipodi:cy="0" sodipodi:rx="1" sodipodi:ry="1"/>
      <g id="4rays">
        <g id="2rays">
          <path d="M 0.25881905,0.96592583 L 0,1.5767493 L -0.25881905,0.96592583" id="ray"/>
          <!--sin(Pi/12) cos(Pi/12) LN/NM-->
          <use height="88" id="use4201" transform="scale(-1,-1)" width="72" x="0" xlink:href="#ray" y="0"/>
        </g>
        <use height="88" id="use4203" transform="matrix(0,1,-1,0,0,0)" width="72" x="0" xlink:href="#2rays" y="0"/>
      </g>
      <use height="88" id="use4205" transform="matrix(0.8660254,0.5,-0.5,0.8660254,0,0)" width="72" x="0" xlink:href="#4rays" y="0"/>
      <use height="88" id="use4207" transform="matrix(0.5,0.8660254,-0.8660254,0.5,0,0)" width="72" x="0" xlink:href="#4rays" y="0"/>
    </g>
  </g>
</svg>

<svg height="256" viewBox="-18 -5 72 88" width="256" xmlns="http://www.w3.org/2000/svg" xmlns:xlink="http://www.w3.org/1999/xlink"><defs><clipPath id="0"><path d="m-20 21h50v30h-50z"/></clipPath><clipPath id="1"><path d="m-20 20h50v30h-50z"/></clipPath></defs><path d="m-15 0v80h60l-42.43-42.43h42.43l-60-37.574z" stroke="#003893" stroke-width="5.165"/><path d="m-15 0v80h60l-42.43-42.43h42.43l-60-37.574" fill="#ce1126"/><g fill="#fff"><circle clip-path="url(#0)" cy="23.483" r="11.95"/><circle clip-path="url(#1)" cy="18.787" r="12.84" fill="#ce1126"/><g transform="matrix(5.56106 0 0 5.56106 0 29.04)"><circle r="1"/><g id="2"><g id="4"><path d="m.195-.981l-.195-.408-.195.408" id="6" transform="matrix(.98079.19509-.19509.98079 0 0)"/><use height="88" transform="matrix(.92388.38268-.38268.92388 0 0)" width="72" xlink:href="#6"/><use height="88" transform="matrix(.70711.70711-.70711.70711 0 0)" width="72" xlink:href="#6"/></g><use height="88" transform="matrix(.38268.92388-.92388.38268 0 0)" width="72" xlink:href="#4"/></g><use height="88" transform="scale(-1 1)" width="72" xlink:href="#2"/></g><g transform="matrix(8.1434 0 0 8.1434 0 58.787)"><circle r="1"/><g id="3"><g id="5"><path d="m.259.966l-.259.611-.259-.611" id="7"/><use height="88" transform="scale(-1-1)" width="72" xlink:href="#7"/></g><use height="88" transform="matrix(0 1-1 0 0 0)" width="72" xlink:href="#5"/></g><use height="88" transform="matrix(.86603.5-.5.86603 0 0)" width="72" xlink:href="#3"/><use height="88" transform="matrix(.5.86603-.86603.5 0 0)" width="72" xlink:href="#3"/></g></g></svg>
